X: 119
T:Jordan
K:G
M:4/4
L:1/8
d2|"G"g2 ag "D7"f2 d2|"G"g2 ag "D7"f2 d2|"G"g2 g2 "A7"gb ag|"D"f2 d2 "D7
"d2 ef|!
g2 "Em"ag "Bm"f2 d2|"C"e2 fe "G"d2 B2|"Am'c2 cB "D7"A2 d|"G"B2 G2 G2:||!
||:d2|"G"G2 GA B2 d2|"C"c2 e2 "D7"d4|"G"G2 GA B2 d2|"Am"c2 "D7"A2 A4|!
"G"G2 GA B2 d2|"C"c2 e2 g4|"D7"f2 d2 d2 fe|"D7"d2 ef "G"g2:||
% <A name="D1X120">
